X:1
T: Stella and Ziva
L:1/8
M: 4/4
C: David Kimdon
K:D
"D"FE D F2 E2 D |F4 d4|"Bm" d e2 f2 d gf|B8| 
"G"Bd f g2 B dg|Bd f g2 B dg|"A7"e2 c2 A2 e2|"Bm"d8|
"D" dc d d2 c de | de f f2 e fe|"Bm" d2 B2 F2 D2 |B,8|
"G"B,2 D2 G2 B2 | "Em" G4 e4 |[1"A7"cd ed cB AG|"D"F8:|][2 "A" cB AB cd ec| "D" d8||
"D"d3 f2 e2 d |  "A" c3 A2 B2 c | "G" B2 B2 GA BA | "D" F2 D2 D4 | 
 "G"G3 B2 A2 G|"D"F3 G2 F2 D|[1"A"ED EF GA Bc|"D"d8:|][2"A"E2 G2 F2 E2|"D"D8|]
